icons/svg/checkbox-marked-circle.svg

﻿<?xml version="1.0" encoding="utf-8"?>
<!DOCTYPE svg PUBLIC "-//W3C//DTD SVG 1.1//EN" "http://www.w3.org/Graphics/SVG/1.1/DTD/svg11.dtd">
<svg xmlns="http://www.w3.org/2000/svg" xmlns:xlink="http://www.w3.org/1999/xlink" version="1.1" baseProfile="full" width="24" height="24" viewBox="0 0 24.00 24.00" enable-background="new 0 0 24.00 24.00" xml:space="preserve">
	<path fill="#000000" fill-opacity="1" stroke-width="0.2" stroke-linejoin="round" d="M 9.99939,16.9981L 4.99939,11.9981L 6.41339,10.5841L 9.99939,14.1701L 17.5854,6.58407L 18.9994,7.99807M 11.9994,1.99807C 6.47639,1.99807 1.99939,6.47507 1.99939,11.9981C 1.99939,17.5211 6.47639,21.9981 11.9994,21.9981C 17.5214,21.9981 21.9994,17.5211 21.9994,11.9981C 21.9994,6.47507 17.5214,1.99807 11.9994,1.99807 Z "/>
</svg>

<svg xmlns="http://www.w3.org/2000/svg" version="1.1" baseProfile="full" width="24" height="24" viewBox="0 0 24.00 24.00" xml:space="preserve"><path fill="#000" fill-opacity="1" stroke-width=".2" stroke-linejoin="round" d="M10 16.998l-5-5 1.413-1.414L10 14.17l7.585-7.586L19 7.998m-7-6c-5.524 0-10 4.477-10 10s4.476 10 10 10c5.52 0 10-4.477 10-10s-4.48-10-10-10z"/></svg>
